icons/zcool-fill.svg

<svg viewBox="0 0 24 24" fill="currentColor" xmlns="http://www.w3.org/2000/svg"><path d="M9.90338 21.8387C5.539 21.8387 2.00098 18.3003 2.00098 13.9355C2.00098 10.2901 4.46846 7.05968 7.82477 6.30851C11.746 5.4309 13.5286 4.74194 14.9016 2C15.9002 3.93518 15.2254 5.70968 14.9029 6.67742C19.5998 5.54839 21.2732 3.39627 21.6763 3.12903C21.6763 7.08065 20.4448 9.58065 19.2572 11.1935C20.733 11.1382 21.2656 10.7097 22.001 10.6071C21.6763 12.0553 20.5 14.0968 17.67 15.4017C16.9827 19.066 13.7668 21.8387 9.90338 21.8387ZM13.6127 15.3871C13.6127 15.7097 13.5595 15.871 13.2095 15.871L10.0592 15.873L13.0203 12.6251C13.8799 11.7653 13.8799 11.3354 13.8799 10.2369C13.8799 9.90252 13.8322 9.52041 13.9277 9.18607C13.9754 9.04278 13.8799 8.99501 13.7367 9.04278C13.4023 9.1383 12.8292 9.1383 11.8741 9.1383H7.57579C7.33699 9.1383 7.24148 8.99501 7.33699 8.80396C7.33699 8.75619 7.33699 8.6129 7.24147 8.6129C6.62061 8.89949 6.47734 10.1891 6.52509 11.0011C6.52509 11.431 6.76389 11.6698 7.0982 11.6698H10.4891L7.00268 15.3953C6.76389 15.6819 6.52509 16.064 6.52509 16.5894V17.6402C6.52509 18.1179 6.81165 18.4045 7.33699 18.5H13.3248C13.8799 18.5 14.2578 18.2665 14.2578 17.6452V16.5161C14.2578 16.3076 14.2578 15.5484 13.6127 15.3871Z"/></svg>

<svg xmlns="http://www.w3.org/2000/svg" viewBox="0 0 24 24">
    <g>
        <path fill="none" d="M0 0h24v24H0z"/>
        <path d="M9.902 21.839A7.903 7.903 0 0 1 2 13.935C2 10.29 4.467 7.06 7.824 6.31 11.745 5.43 13.528 4.742 14.9 2c.998 1.935.323 3.71 0 4.677 4.698-1.129 6.371-3.28 6.774-3.548 0 3.952-1.231 6.452-2.419 8.065 1.476-.056 2.009-.484 2.744-.587-.325 1.448-1.5 3.49-4.33 4.795a7.905 7.905 0 0 1-7.768 6.437zm3.71-6.452c0 .323-.053.484-.403.484l-3.15.002 2.96-3.248c.86-.86.86-1.29.86-2.388 0-.334-.048-.717.048-1.05.047-.144-.048-.192-.191-.144-.335.095-.908.095-1.863.095H7.575c-.239 0-.335-.143-.239-.334 0-.048 0-.191-.096-.191-.62.286-.764 1.576-.716 2.388 0 .43.239.669.573.669h3.391l-3.486 3.725c-.24.287-.478.669-.478 1.194v1.051c0 .478.287.764.812.86h5.988c.555 0 .933-.233.933-.855v-1.129c0-.208 0-.968-.645-1.129z"/>
    </g>
</svg>
